arb/images/icons/messenger-logos.svg

<svg width="33" height="33" viewBox="0 0 33 33" fill="none" xmlns="http://www.w3.org/2000/svg">
<path fill-rule="evenodd" clip-rule="evenodd" d="M17.982 20.5141L13.886 16.2581L5.99479 20.6213L14.6444 11.4437L18.7404 15.6997L26.6284 11.3365L17.9804 20.5141H17.982ZM16.3132 0.65332C7.56599 0.65332 0.474792 7.28372 0.474792 15.4645C0.474792 20.1173 2.76919 24.2693 6.35959 26.9845V32.6533L11.7644 29.6549C13.2044 30.0581 14.7324 30.2757 16.3132 30.2757C25.062 30.2757 32.1532 23.6437 32.1532 15.4645C32.1532 7.28372 25.062 0.65332 16.3132 0.65332Z" fill="#687A95"/>
</svg>

<svg width="33" height="33" fill="none" xmlns="http://www.w3.org/2000/svg"><path fill-rule="evenodd" clip-rule="evenodd" d="M17.982 20.514l-4.096-4.256-7.891 4.363 8.65-9.177L18.74 15.7l7.888-4.364-8.648 9.178h.002zM16.313.654C7.566.653.475 7.283.475 15.463c0 4.653 2.294 8.805 5.885 11.52v5.67l5.404-3c1.44.404 2.968.622 4.55.622 8.748 0 15.84-6.632 15.84-14.812S25.061.654 16.313.654z" fill="#687A95"/></svg>
